X:3
T:Schottish
Z:midi2abc/Dave Holland
M:2/4
L:1/16
R:Schottische
Q:1/4=100
K:C
c4 d2e2|c4 d2e2|f2g2 f2e2|d2e2 d2B2|\
c4 d2e2|c4 d2e2|f2g2 f2e2|1d8:|2d6 e2||
f2d2 e2c2|B4 c2B2|G2B2 d2B2|c2B2 d2e2|\
f2d2 e2c2|B4 c2B2|G2B2 d2B2|1c4 d2e2:|2c8||
g4 e2f2|g4- gz g2|a2g2 f2e2|d2e2 f2d2|\
g4 e2f2|g4- gz g2|a2g2 f2e2|1d8:|2d6e2||
f2d2 e2c2|B4 c2B2|G2B2 d2B2|c2B2 d2e2|\
f2d2 e2c2|B4 c2B2|G2B2 d2B2|1c4 d2e2:|2c8|]



